X:4593
T:Dusty Miller. JC.084
M:6/4
L:1/4
Q:140
C:Beginning of MS.13
S:John Clare,Poet,Helpston. (1793-1864)
R:Double Hornpipe
O:England
A:Northamptonshire
N:
Z:P Headford
K:G
B>cdBAG|FAAcBA|B>cdBAG|DGGBAG:|!
|:B>cdefg|aAAcBA|B>cde~f3/2e/4f/4|g>agBAG:|]
W:MS includes Dance Instructions.
W:Song text exists. See Deacon.
W:Tunes from here  to Number 247 are in MS.13
